icons/edit.svg

<svg width="24" height="24" viewBox="0 0 24 24" fill="none" xmlns="http://www.w3.org/2000/svg">
<path fill-rule="evenodd" clip-rule="evenodd" d="M17.5781 6.43886C16.2567 5.20867 14.2257 5.23502 13.0303 6.43036L12.3607 7.10003L16.9 11.6394L17.5607 10.9787C18.7884 9.66038 18.7653 7.63546 17.5781 6.43886ZM11.9697 5.3697C13.7716 3.56772 16.7341 3.59149 18.613 5.35287L18.6218 5.36114L18.6303 5.3697C20.4323 7.17167 20.4085 10.1342 18.6472 12.013L18.6389 12.0218L16.9 13.7607L10.2393 7.10003L11.9697 5.3697Z" fill="black"/>
<path fill-rule="evenodd" clip-rule="evenodd" d="M11.4 6.1394L17.9607 12.7001L12.2303 18.4304C12.0468 18.6139 11.8388 18.7317 11.6854 18.8084C11.6068 18.8477 11.5307 18.8818 11.4719 18.9081C11.4071 18.9371 11.3677 18.9547 11.3354 18.9709L11.2396 19.0188L5.6532 20.0345C5.16433 20.1451 4.71561 19.9513 4.43217 19.6679C4.14873 19.3845 3.95494 18.9357 4.06556 18.4469L5.05231 13.0198C5.08548 12.4446 5.46783 12.0684 5.63904 11.9C5.6502 11.889 5.66046 11.8789 5.66967 11.8697L11.4 6.1394ZM11.4 8.26072L6.73033 12.9304C6.67809 12.9826 6.64091 13.02 6.60808 13.0561C6.57741 13.0899 6.56 13.1124 6.55 13.1272V13.1677L5.57614 18.5239L10.7683 17.5799C10.7961 17.5671 10.8228 17.5552 10.8464 17.5447C10.8509 17.5427 10.8552 17.5408 10.8593 17.5389C10.9193 17.5121 10.9682 17.4899 11.0146 17.4667C11.1112 17.4185 11.1532 17.3862 11.1697 17.3697L15.8393 12.7001L11.4 8.26072Z" fill="black"/>
</svg>

<svg xmlns="http://www.w3.org/2000/svg" fill="none" viewBox="0 0 24 24">
  <path fill="#000" fill-rule="evenodd" d="M17.574 6.393c-1.322-1.23-3.353-1.204-4.548-.008l-.67.67 4.54 4.539.66-.66c1.228-1.32 1.205-3.344.018-4.54Zm-5.609-1.069c1.802-1.802 4.765-1.778 6.643-.017l.01.009.008.008c1.802 1.802 1.778 4.765.017 6.643l-.009.01-1.739 1.738-6.66-6.66 1.73-1.73Z" clip-rule="evenodd"/>
  <path fill="#000" fill-rule="evenodd" d="m11.396 6.094 6.56 6.56-5.73 5.73a2.073 2.073 0 0 1-.545.379c-.079.04-.155.073-.214.1-.064.029-.104.046-.136.062l-.096.048L5.65 19.99a1.32 1.32 0 0 1-1.221-.367 1.32 1.32 0 0 1-.367-1.22l.987-5.428c.033-.575.415-.951.587-1.12l.03-.03 5.73-5.73Zm0 2.121-4.67 4.67c-.052.052-.09.09-.122.126a.66.66 0 0 0-.059.07v.041l-.973 5.356 5.192-.944.078-.035.013-.006a4.16 4.16 0 0 0 .155-.072.636.636 0 0 0 .155-.097l4.67-4.67-4.44-4.439Z" clip-rule="evenodd"/>
</svg>
